X: 31470
T: Paddy Taylor's
R: jig
M: 6/8
K: Dmajor
A3 gfg|~a3 efg|fed ged|cAG DEG|
~A3 gfg|a z a efg|fed cAG|1 Adc d2 c:|2 Adc d2 e ]
|:fed edc|ded cAG|ABA DFA|fed eca|
[1 f z f efe|ded cde|fed cAG|Adc d2 e:|
[2 fed edc|ded cde|fed cAG|Adc d3||

